static/images/icons/feature_prioritization.svg

<svg width="80" height="80" viewBox="0 0 80 80" fill="none" xmlns="http://www.w3.org/2000/svg">
<line x1="41" y1="4.37115e-08" x2="41" y2="80" stroke="black" stroke-width="2"/>
<line y1="-1" x2="80" y2="-1" transform="matrix(1 0 0 -1 0 40)" stroke="black" stroke-width="2"/>
<path d="M63.1996 20C63.1996 21.7674 61.7669 23.2 59.9996 23.2C58.2322 23.2 56.7996 21.7674 56.7996 20C56.7996 18.2327 58.2322 16.8 59.9996 16.8C61.7669 16.8 63.1996 18.2327 63.1996 20ZM58.0796 20C58.0796 21.0604 58.9392 21.92 59.9996 21.92C61.0599 21.92 61.9196 21.0604 61.9196 20C61.9196 18.9397 61.0599 18.08 59.9996 18.08C58.9392 18.08 58.0796 18.9397 58.0796 20Z" fill="currentColor"/>
<path d="M31.9996 8.00005C31.9996 9.76736 30.5669 11.2 28.7996 11.2C27.0323 11.2 25.5996 9.76736 25.5996 8.00005C25.5996 6.23274 27.0323 4.80005 28.7996 4.80005C30.5669 4.80005 31.9996 6.23274 31.9996 8.00005ZM26.8796 8.00005C26.8796 9.06044 27.7392 9.92005 28.7996 9.92005C29.86 9.92005 30.7196 9.06044 30.7196 8.00005C30.7196 6.93966 29.86 6.08005 28.7996 6.08005C27.7392 6.08005 26.8796 6.93966 26.8796 8.00005Z" fill="currentColor"/>
<path d="M20.8004 34.4C20.8004 36.1673 19.3677 37.6 17.6004 37.6C15.8331 37.6 14.4004 36.1673 14.4004 34.4C14.4004 32.6326 15.8331 31.2 17.6004 31.2C19.3677 31.2 20.8004 32.6326 20.8004 34.4ZM15.6804 34.4C15.6804 35.4603 16.54 36.32 17.6004 36.32C18.6608 36.32 19.5204 35.4603 19.5204 34.4C19.5204 33.3396 18.6608 32.48 17.6004 32.48C16.54 32.48 15.6804 33.3396 15.6804 34.4Z" fill="currentColor"/>
<path d="M14.3998 57.5999C14.3998 59.3672 12.9671 60.7999 11.1998 60.7999C9.43244 60.7999 7.99976 59.3672 7.99976 57.5999C7.99976 55.8326 9.43244 54.3999 11.1998 54.3999C12.9671 54.3999 14.3998 55.8326 14.3998 57.5999ZM9.27976 57.5999C9.27976 58.6603 10.1394 59.5199 11.1998 59.5199C12.2601 59.5199 13.1198 58.6603 13.1198 57.5999C13.1198 56.5395 12.2601 55.6799 11.1998 55.6799C10.1394 55.6799 9.27976 56.5395 9.27976 57.5999Z" fill="currentColor"/>
<path d="M36.7997 47.2C36.7997 48.9673 35.367 50.4 33.5997 50.4C31.8323 50.4 30.3997 48.9673 30.3997 47.2C30.3997 45.4327 31.8323 44 33.5997 44C35.367 44 36.7997 45.4327 36.7997 47.2ZM31.6797 47.2C31.6797 48.2604 32.5393 49.12 33.5997 49.12C34.66 49.12 35.5197 48.2604 35.5197 47.2C35.5197 46.1396 34.66 45.28 33.5997 45.28C32.5393 45.28 31.6797 46.1396 31.6797 47.2Z" fill="currentColor"/>
<path d="M71.2 47.2C71.2 48.9673 69.7674 50.4 68 50.4C66.2327 50.4 64.8 48.9673 64.8 47.2C64.8 45.4327 66.2327 44 68 44C69.7674 44 71.2 45.4327 71.2 47.2ZM66.08 47.2C66.08 48.2604 66.9397 49.12 68 49.12C69.0604 49.12 69.92 48.2604 69.92 47.2C69.92 46.1396 69.0604 45.28 68 45.28C66.9397 45.28 66.08 46.1396 66.08 47.2Z" fill="currentColor"/>
<path d="M56.7997 8.00005C56.7997 9.76736 55.367 11.2 53.5997 11.2C51.8323 11.2 50.3997 9.76736 50.3997 8.00005C50.3997 6.23274 51.8323 4.80005 53.5997 4.80005C55.367 4.80005 56.7997 6.23274 56.7997 8.00005ZM51.6797 8.00005C51.6797 9.06044 52.5393 9.92005 53.5997 9.92005C54.66 9.92005 55.5197 9.06044 55.5197 8.00005C55.5197 6.93966 54.66 6.08005 53.5997 6.08005C52.5393 6.08005 51.6797 6.93966 51.6797 8.00005Z" fill="currentColor"/>
<path d="M52.7999 28C52.7999 29.7674 51.3672 31.2 49.5999 31.2C47.8326 31.2 46.3999 29.7674 46.3999 28C46.3999 26.2327 47.8326 24.8 49.5999 24.8C51.3672 24.8 52.7999 26.2327 52.7999 28ZM47.6799 28C47.6799 29.0604 48.5395 29.92 49.5999 29.92C50.6603 29.92 51.5199 29.0604 51.5199 28C51.5199 26.9397 50.6603 26.08 49.5999 26.08C48.5395 26.08 47.6799 26.9397 47.6799 28Z" fill="currentColor"/>
</svg>

<svg fill="none" height="80" viewBox="0 0 80 80" width="80" xmlns="http://www.w3.org/2000/svg"><path d="m41 0v80" stroke="#000" stroke-width="2"/><path d="m0-1h80" stroke="#000" stroke-width="2" transform="matrix(1 0 0 -1 0 40)"/><g fill="currentColor"><path d="m63.1996 20c0 1.7674-1.4327 3.2-3.2 3.2-1.7674 0-3.2-1.4326-3.2-3.2 0-1.7673 1.4326-3.2 3.2-3.2 1.7673 0 3.2 1.4327 3.2 3.2zm-5.12 0c0 1.0604.8596 1.92 1.92 1.92 1.0603 0 1.92-.8596 1.92-1.92 0-1.0603-.8597-1.92-1.92-1.92-1.0604 0-1.92.8597-1.92 1.92z"/><path d="m31.9996 8.00005c0 1.76731-1.4327 3.19995-3.2 3.19995s-3.2-1.43264-3.2-3.19995 1.4327-3.2 3.2-3.2 3.2 1.43269 3.2 3.2zm-5.12 0c0 1.06039.8596 1.92 1.92 1.92s1.92-.85961 1.92-1.92-.8596-1.92-1.92-1.92-1.92.85961-1.92 1.92z"/><path d="m20.8004 34.4c0 1.7673-1.4327 3.2-3.2 3.2s-3.2-1.4327-3.2-3.2c0-1.7674 1.4327-3.2 3.2-3.2s3.2 1.4326 3.2 3.2zm-5.12 0c0 1.0603.8596 1.92 1.92 1.92s1.92-.8597 1.92-1.92c0-1.0604-.8596-1.92-1.92-1.92s-1.92.8596-1.92 1.92z"/><path d="m14.3998 57.5999c0 1.7673-1.4327 3.2-3.2 3.2-1.76736 0-3.20004-1.4327-3.20004-3.2s1.43268-3.2 3.20004-3.2c1.7673 0 3.2 1.4327 3.2 3.2zm-5.12004 0c0 1.0604.85964 1.92 1.92004 1.92 1.0603 0 1.92-.8596 1.92-1.92s-.8597-1.92-1.92-1.92c-1.0604 0-1.92004.8596-1.92004 1.92z"/><path d="m36.7997 47.2c0 1.7673-1.4327 3.2-3.2 3.2-1.7674 0-3.2-1.4327-3.2-3.2s1.4326-3.2 3.2-3.2c1.7673 0 3.2 1.4327 3.2 3.2zm-5.12 0c0 1.0604.8596 1.92 1.92 1.92 1.0603 0 1.92-.8596 1.92-1.92s-.8597-1.92-1.92-1.92c-1.0604 0-1.92.8596-1.92 1.92z"/><path d="m71.2 47.2c0 1.7673-1.4326 3.2-3.2 3.2-1.7673 0-3.2-1.4327-3.2-3.2s1.4327-3.2 3.2-3.2c1.7674 0 3.2 1.4327 3.2 3.2zm-5.12 0c0 1.0604.8597 1.92 1.92 1.92 1.0604 0 1.92-.8596 1.92-1.92s-.8596-1.92-1.92-1.92c-1.0603 0-1.92.8596-1.92 1.92z"/><path d="m56.7997 8.00005c0 1.76731-1.4327 3.19995-3.2 3.19995-1.7674 0-3.2-1.43264-3.2-3.19995s1.4326-3.2 3.2-3.2c1.7673 0 3.2 1.43269 3.2 3.2zm-5.12 0c0 1.06039.8596 1.92 1.92 1.92 1.0603 0 1.92-.85961 1.92-1.92s-.8597-1.92-1.92-1.92c-1.0604 0-1.92.85961-1.92 1.92z"/><path d="m52.7999 28c0 1.7674-1.4327 3.2-3.2 3.2s-3.2-1.4326-3.2-3.2c0-1.7673 1.4327-3.2 3.2-3.2s3.2 1.4327 3.2 3.2zm-5.12 0c0 1.0604.8596 1.92 1.92 1.92s1.92-.8596 1.92-1.92c0-1.0603-.8596-1.92-1.92-1.92s-1.92.8597-1.92 1.92z"/></g></svg>
